svg/u2622.svg

<svg viewBox="0 0 128 128" xmlns="http://www.w3.org/2000/svg">
  <g>
    <circle cx="64.46" cy="63.96" r="60" fill="#F2A600"/>
    <circle cx="60.56" cy="63.06" r="56.1" fill="#FFCC32"/>
    <path d="M76.96,64.36h32.7c1.01-0.04,1.81-0.88,1.8-1.9c-0.61-15.42-8.76-29.55-21.8-37.8c-0.83-0.53-1.94-0.28-2.47,0.55 c-0.01,0.02-0.02,0.03-0.03,0.05l-16.5,28.3c-0.46,0.78-0.24,1.78,0.5,2.3c2.16,1.75,3.59,4.25,4,7 C75.31,63.73,76.07,64.37,76.96,64.36z"/>
    <path d="M64.46,75.16c-1.4-0.01-2.79-0.29-4.1-0.8c-0.83-0.32-1.77,0.02-2.2,0.8l-16.3,28.3c-0.5,0.87-0.2,1.98,0.67,2.48 c0.01,0.01,0.02,0.01,0.03,0.02c6.76,3.54,14.27,5.39,21.9,5.4c7.6,0.04,15.1-1.82,21.8-5.4c0.88-0.49,1.2-1.59,0.72-2.47 c-0.01-0.01-0.01-0.02-0.02-0.03l-16.3-28.3c-0.43-0.78-1.37-1.12-2.2-0.8C67.19,74.89,65.83,75.16,64.46,75.16z"/>
    <circle cx="64.46" cy="64.36" r="7.2"/>
    <path d="M24.46,29.66c4.5-7.1,14.1-13,24.1-14.8 c2.5-0.4,5-0.6,7.1,0.2c1.6,0.6,2.9,2.1,2,3.8c-0.7,1.4-2.6,2-4.1,2.5c-9.38,3.1-17.47,9.21-23,17.4c-2,3-5,11.3-8.7,9.2 C17.96,45.66,18.76,38.46,24.46,29.66z" opacity="0.65" fill="#FFF170" enable-background="new "/>
    <path d="M58.26,53.46l-16.4-28.2c-0.52-0.85-1.63-1.13-2.49-0.61c0,0-0.01,0.01-0.01,0.01c-13.03,8.27-21.21,22.38-21.9,37.8 c-0.01,1.02,0.79,1.86,1.8,1.9h32.7c0.88,0,1.64-0.63,1.8-1.5c0.41-2.75,1.84-5.25,4-7C58.45,55.27,58.66,54.28,58.26,53.46z"/>
    <path d="M24.46,29.66c4.5-7.1,14.1-13,24.1-14.8 c2.5-0.4,5-0.6,7.1,0.2c1.6,0.6,2.9,2.1,2,3.8c-0.7,1.4-2.6,2-4.1,2.5c-9.38,3.1-17.47,9.21-23,17.4c-2,3-5,11.3-8.7,9.2 C17.96,45.66,18.76,38.46,24.46,29.66z" opacity="0.3" fill="#FFFFFF" enable-background="new "/>
  </g>
</svg>

<svg viewBox="0 0 128 128" xmlns="http://www.w3.org/2000/svg">
  <defs/>
  <path d="M124.46,63.96 A60 60 0 1 1 4.46,63.96 A60 60 0 1 1 124.46,63.96 Z" fill="#F2A600"/>
  <path d="M116.66,63.06 A56.1 56.1 0 1 1 4.46,63.06 A56.1 56.1 0 1 1 116.66,63.06 Z" fill="#FFCC32"/>
  <path d="M76.96,64.36 L109.66,64.36 C110.67,64.32 111.47,63.48 111.46,62.46 C110.85,47.04 102.7,32.91 89.66,24.66 C88.83,24.13 87.72,24.38 87.19,25.21 C87.18,25.23 87.17,25.24 87.16,25.26 L70.66,53.56 C70.2,54.34 70.42,55.34 71.16,55.86 C73.32,57.61 74.75,60.11 75.16,62.86 C75.31,63.73 76.07,64.37 76.96,64.36 Z"/>
  <path d="M64.46,75.16 C63.06,75.15 61.67,74.87 60.36,74.36 C59.53,74.04 58.59,74.38 58.16,75.16 L41.86,103.46 C41.36,104.33 41.66,105.44 42.53,105.94 C42.54,105.95 42.55,105.95 42.56,105.96 C49.32,109.5 56.83,111.35 64.46,111.36 C72.06,111.4 79.56,109.54 86.26,105.96 C87.14,105.47 87.46,104.37 86.98,103.49 C86.97,103.48 86.97,103.47 86.96,103.46 L70.66,75.16 C70.23,74.38 69.29,74.04 68.46,74.36 C67.19,74.89 65.83,75.16 64.46,75.16 Z"/>
  <path d="M71.66,64.36 A7.2 7.2 0 1 1 57.26,64.36 A7.2 7.2 0 1 1 71.66,64.36 Z"/>
  <path d="M24.46,29.66 C28.96,22.56 38.56,16.66 48.56,14.86 C51.06,14.46 53.56,14.26 55.66,15.06 C57.26,15.66 58.56,17.16 57.66,18.86 C56.96,20.26 55.06,20.86 53.56,21.36 C44.18,24.46 36.09,30.57 30.56,38.76 C28.56,41.76 25.56,50.06 21.86,47.96 C17.96,45.66 18.76,38.46 24.46,29.66 Z" fill="#FFF170" opacity="0.65"/>
  <path d="M58.26,53.46 L41.86,25.26 C41.34,24.41 40.23,24.13 39.37,24.65 C39.37,24.65 39.36,24.66 39.36,24.66 C26.33,32.93 18.15,47.04 17.46,62.46 C17.45,63.48 18.25,64.32 19.26,64.36 L51.96,64.36 C52.84,64.36 53.6,63.73 53.76,62.86 C54.17,60.11 55.6,57.61 57.76,55.86 C58.45,55.27 58.66,54.28 58.26,53.46 Z"/>
  <path d="M24.46,29.66 C28.96,22.56 38.56,16.66 48.56,14.86 C51.06,14.46 53.56,14.26 55.66,15.06 C57.26,15.66 58.56,17.16 57.66,18.86 C56.96,20.26 55.06,20.86 53.56,21.36 C44.18,24.46 36.09,30.57 30.56,38.76 C28.56,41.76 25.56,50.06 21.86,47.96 C17.96,45.66 18.76,38.46 24.46,29.66 Z" fill="#FFFFFF" opacity="0.3"/>
</svg>
